!!!OTL: Starlight Lullaby
!!!OTL@@CHN: 星光摇篮曲
!!!PPP: China
**kern
*clefG2
*M4/4
*k[b-e-a-]
*MM65
{4B-
8e-
8f
8g
8b-
4g
=1
8.f
16e-
8f
16f
16g
2e-}
=2
{8c
16e-
16e-
8e-
8c
4b-
8b-
8g
=3
4.f
8g
2f}
=4
{4B-
8e-
8f
8g
8b-
4g
=5
8a-
8g
8f
8e-
2c}
=6
{8c
8e-
8e-
8g
4f
8f
8g
=7
1e-}
=8
{4.b-
8g
2f
=9
8f
8g
8b-
8cc
2b-}
=10
{4e-
8e-
8f
8g
8b-
4g
=11
4b-
8cc
8g
2f
=12
8f
8g
8b-
8g
4f
4b-
=13
1g}
=14
{4g
8f
8g
2e-
=15
8f
8g
8f
8e-
2c}
=16
{8f
8g
8b-
8cc
2b-
=17
8g
8g
8f
8e-
2c}
=18
{4.c
8B-
8f
8e-
8f
8g
=19
1e-}
=20
{8c
8B-
8c
8e-
4f
8g
8c
=21
1e-}
==
*-
